X:246
T: Zwei liebten sich (20a), S. 84
N: T0135
O: Luxemburg
S: Singendes Volk, Esch-Alzette 1937 posth.]
N: Straen, fff Witry, 10.1.1933
R: Liebeslieder]
M: 3/4
L: 1/16
K: F
C2F2G2 | A6A2G2F2 | G4z2
C2C2B2 | B6B2A2G2 | A4z2
c2c2c2 | B3AG2c2c2c2 | A3GF2
A2G2G2 | F4d4c2cB | A4z2
c2c2c2 | B3AG2c2c2c2 | A3GF2
A2G2G2 | F4d4c2cB | A4z2

@@@ Tune index: 8300
